build/img/sprite/icon-pencil.svg

<svg width="15" height="15" viewBox="0 0 15 15" fill="none" xmlns="http://www.w3.org/2000/svg">
<path d="M10.9688 0.28125C10.5938 -0.09375 10.0312 -0.09375 9.65625 0.28125L0.28125 9.65625C0.09375 9.84375 0 10.0312 0 10.3125V14.0625C0 14.625 0.375 15 0.9375 15H4.6875C4.96875 15 5.15625 14.9062 5.34375 14.7188L14.7188 5.34375C15.0938 4.96875 15.0938 4.40625 14.7188 4.03125L10.9688 0.28125ZM4.3125 13.125H1.875V10.6875L7.5 5.0625L9.9375 7.5L4.3125 13.125ZM11.25 6.1875L8.8125 3.75L10.3125 2.25L12.75 4.6875L11.25 6.1875Z" fill="currentColor"/>
</svg>

<svg width="15" height="15" fill="none" xmlns="http://www.w3.org/2000/svg"><path d="M10.969.281a.906.906 0 00-1.313 0L.281 9.656c-.187.188-.281.375-.281.656v3.75c0 .563.375.938.938.938h3.75c.28 0 .468-.094.656-.281l9.375-9.375a.906.906 0 000-1.313l-3.75-3.75zM4.313 13.125H1.874v-2.438L7.5 5.064 9.938 7.5l-5.626 5.625zm6.937-6.938L8.812 3.75l1.5-1.5 2.438 2.438-1.5 1.5z" fill="currentColor"/></svg>
